; generated by PrusaSlicer 2.9.4 on 2026-02-22 at 00:50:31 UTC
; prusaslicer:gcode_flavor = marlin2
; prusaslicer:printer_model = MK3S
; layer_count = 7
; estimated printing time (normal mode) = 0s
; filament used [mm] = 0
; nozzle_diameter = 0
; total_toolchanges = 0
; LEGO Wall G-code  —  generated by nbt_to_gcode.py
; Structure  : 9 cols wide × 7 rows tall
; Bricks     : 63 total  (27 red, 36 yellow)
; Brick face : 8 mm wide × 9.6 mm tall  (short / square end faces out)
; Wall depth : 16 mm  (2 studs — long axis of brick points inward)
; Wall X     : 50.0 – 122.0 mm
; Wall Z     : 5.0 – 72.2 mm
; Disp RED   : X=0.0  Y=0.0  Z=5.0
; Disp YELLOW: X=30.0  Y=0.0  Z=5.0

M73 P0 R0 Q0 S0        ; progress: 0% (normal + stealth modes)
M201 X1000 Y1000 Z200  ; max accelerations [mm/s^2] — no E (no extruder)
M203 X200 Y200 Z12     ; max feedrates [mm/s]
M204 P1250 T1250       ; print / travel acceleration [mm/s^2]
M205 X8.00 Y8.00 Z0.40 ; jerk limits [mm/s]
G21                    ; units: millimetres
G90                    ; absolute positioning
G28 W                  ; home all axes (W = skip mesh bed leveling)
; NOTE: M104/M109/M140/M190 omitted — no hotend/bed on this machine
M83                    ; relative extruder mode (E values are incremental)
G92 E0                 ; reset extruder position

G0 Z80.000 F6000 ; raise to safe travel height
;TYPE:Travel

;LAYER_CHANGE
;Z:5.000
;HEIGHT:9.600
; --- Layer 1/7 ---
M73 P0 R0 Q0 S0  ; progress 0%
; ── Brick    1/63  [YELLOW]  col=  0  row=  0  →  X=50.0  Z=5.0 ──
;    [pick-up  YELLOW]
;TYPE:Travel
G0 X30.000 Y0.000 F6000 ; move over YELLOW dispenser
G0 Z5.000 F800 ; descend to grab height
G4 P500  ; dwell — let block seat in socket
G0 Z80.000 F2000 ; rise with brick (carry speed)

;    [travel to brick]
;TYPE:Custom
G1 X50.000 Y150.000 E0.0500 F2000 ; position over col=0 row=0 (carry speed)
G92 E0   ; reset E after travel mark

;    [place]
;TYPE:Travel
G0 Z29.500 F800 ; slow approach (6 mm above target)
G1 Z23.500 F150 ; push brick onto studs
G4 P200  ; dwell 200 ms — ensure engagement
;TYPE:Travel
G0 Z80.000 F6000 ; retract to safe height

M73 P2 R0 Q2 S0  ; progress 2%
; ── Brick    2/63  [YELLOW]  col=  1  row=  0  →  X=58.0  Z=5.0 ──
;    [pick-up  YELLOW]
;TYPE:Travel
G0 X30.000 Y0.000 F6000 ; move over YELLOW dispenser
G0 Z5.000 F800 ; descend to grab height
G4 P500  ; dwell — let block seat in socket
G0 Z80.000 F2000 ; rise with brick (carry speed)

;    [travel to brick]
;TYPE:Custom
G1 X58.000 Y150.000 E0.0500 F2000 ; position over col=1 row=0 (carry speed)
G92 E0   ; reset E after travel mark

;    [place]
;TYPE:Travel
G0 Z29.500 F800 ; slow approach (6 mm above target)
G1 Z23.500 F150 ; push brick onto studs
G4 P200  ; dwell 200 ms — ensure engagement
;TYPE:Travel
G0 Z80.000 F6000 ; retract to safe height

M73 P3 R0 Q3 S0  ; progress 3%
; ── Brick    3/63  [YELLOW]  col=  2  row=  0  →  X=66.0  Z=5.0 ──
;    [pick-up  YELLOW]
;TYPE:Travel
G0 X30.000 Y0.000 F6000 ; move over YELLOW dispenser
G0 Z5.000 F800 ; descend to grab height
G4 P500  ; dwell — let block seat in socket
G0 Z80.000 F2000 ; rise with brick (carry speed)

;    [travel to brick]
;TYPE:Custom
G1 X66.000 Y150.000 E0.0500 F2000 ; position over col=2 row=0 (carry speed)
G92 E0   ; reset E after travel mark

;    [place]
;TYPE:Travel
G0 Z29.500 F800 ; slow approach (6 mm above target)
G1 Z23.500 F150 ; push brick onto studs
G4 P200  ; dwell 200 ms — ensure engagement
;TYPE:Travel
G0 Z80.000 F6000 ; retract to safe height

M73 P5 R0 Q5 S0  ; progress 5%
; ── Brick    4/63  [YELLOW]  col=  3  row=  0  →  X=74.0  Z=5.0 ──
;    [pick-up  YELLOW]
;TYPE:Travel
G0 X30.000 Y0.000 F6000 ; move over YELLOW dispenser
G0 Z5.000 F800 ; descend to grab height
G4 P500  ; dwell — let block seat in socket
G0 Z80.000 F2000 ; rise with brick (carry speed)

;    [travel to brick]
;TYPE:Custom
G1 X74.000 Y150.000 E0.0500 F2000 ; position over col=3 row=0 (carry speed)
G92 E0   ; reset E after travel mark

;    [place]
;TYPE:Travel
G0 Z29.500 F800 ; slow approach (6 mm above target)
G1 Z23.500 F150 ; push brick onto studs
G4 P200  ; dwell 200 ms — ensure engagement
;TYPE:Travel
G0 Z80.000 F6000 ; retract to safe height

M73 P6 R0 Q6 S0  ; progress 6%
; ── Brick    5/63  [RED   ]  col=  4  row=  0  →  X=82.0  Z=5.0 ──
;    [pick-up  RED]
;TYPE:Travel
G0 X0.000 Y0.000 F6000 ; move over RED dispenser
G0 Z5.000 F800 ; descend to grab height
G4 P500  ; dwell — let block seat in socket
G0 Z80.000 F2000 ; rise with brick (carry speed)

;    [travel to brick]
;TYPE:Custom
G1 X82.000 Y150.000 E0.0500 F2000 ; position over col=4 row=0 (carry speed)
G92 E0   ; reset E after travel mark

;    [place]
;TYPE:Travel
G0 Z29.500 F800 ; slow approach (6 mm above target)
G1 Z23.500 F150 ; push brick onto studs
G4 P200  ; dwell 200 ms — ensure engagement
;TYPE:Travel
G0 Z80.000 F6000 ; retract to safe height

M73 P8 R0 Q8 S0  ; progress 8%
; ── Brick    6/63  [YELLOW]  col=  5  row=  0  →  X=90.0  Z=5.0 ──
;    [pick-up  YELLOW]
;TYPE:Travel
G0 X30.000 Y0.000 F6000 ; move over YELLOW dispenser
G0 Z5.000 F800 ; descend to grab height
G4 P500  ; dwell — let block seat in socket
G0 Z80.000 F2000 ; rise with brick (carry speed)

;    [travel to brick]
;TYPE:Custom
G1 X90.000 Y150.000 E0.0500 F2000 ; position over col=5 row=0 (carry speed)
G92 E0   ; reset E after travel mark

;    [place]
;TYPE:Travel
G0 Z29.500 F800 ; slow approach (6 mm above target)
G1 Z23.500 F150 ; push brick onto studs
G4 P200  ; dwell 200 ms — ensure engagement
;TYPE:Travel
G0 Z80.000 F6000 ; retract to safe height

M73 P10 R0 Q10 S0  ; progress 10%
; ── Brick    7/63  [YELLOW]  col=  6  row=  0  →  X=98.0  Z=5.0 ──
;    [pick-up  YELLOW]
;TYPE:Travel
G0 X30.000 Y0.000 F6000 ; move over YELLOW dispenser
G0 Z5.000 F800 ; descend to grab height
G4 P500  ; dwell — let block seat in socket
G0 Z80.000 F2000 ; rise with brick (carry speed)

;    [travel to brick]
;TYPE:Custom
G1 X98.000 Y150.000 E0.0500 F2000 ; position over col=6 row=0 (carry speed)
G92 E0   ; reset E after travel mark

;    [place]
;TYPE:Travel
G0 Z29.500 F800 ; slow approach (6 mm above target)
G1 Z23.500 F150 ; push brick onto studs
G4 P200  ; dwell 200 ms — ensure engagement
;TYPE:Travel
G0 Z80.000 F6000 ; retract to safe height

M73 P11 R0 Q11 S0  ; progress 11%
; ── Brick    8/63  [YELLOW]  col=  7  row=  0  →  X=106.0  Z=5.0 ──
;    [pick-up  YELLOW]
;TYPE:Travel
G0 X30.000 Y0.000 F6000 ; move over YELLOW dispenser
G0 Z5.000 F800 ; descend to grab height
G4 P500  ; dwell — let block seat in socket
G0 Z80.000 F2000 ; rise with brick (carry speed)

;    [travel to brick]
;TYPE:Custom
G1 X106.000 Y150.000 E0.0500 F2000 ; position over col=7 row=0 (carry speed)
G92 E0   ; reset E after travel mark

;    [place]
;TYPE:Travel
G0 Z29.500 F800 ; slow approach (6 mm above target)
G1 Z23.500 F150 ; push brick onto studs
G4 P200  ; dwell 200 ms — ensure engagement
;TYPE:Travel
G0 Z80.000 F6000 ; retract to safe height

M73 P13 R0 Q13 S0  ; progress 13%
; ── Brick    9/63  [YELLOW]  col=  8  row=  0  →  X=114.0  Z=5.0 ──
;    [pick-up  YELLOW]
;TYPE:Travel
G0 X30.000 Y0.000 F6000 ; move over YELLOW dispenser
G0 Z5.000 F800 ; descend to grab height
G4 P500  ; dwell — let block seat in socket
G0 Z80.000 F2000 ; rise with brick (carry speed)

;    [travel to brick]
;TYPE:Custom
G1 X114.000 Y150.000 E0.0500 F2000 ; position over col=8 row=0 (carry speed)
G92 E0   ; reset E after travel mark

;    [place]
;TYPE:Travel
G0 Z29.500 F800 ; slow approach (6 mm above target)
G1 Z23.500 F150 ; push brick onto studs
G4 P200  ; dwell 200 ms — ensure engagement
;TYPE:Travel
G0 Z80.000 F6000 ; retract to safe height

;LAYER_CHANGE
;Z:14.600
;HEIGHT:9.600
; --- Layer 2/7 ---
M73 P14 R0 Q14 S0  ; progress 14%
; ── Brick   10/63  [YELLOW]  col=  0  row=  1  →  X=50.0  Z=14.6 ──
;    [pick-up  YELLOW]
;TYPE:Travel
G0 X30.000 Y0.000 F6000 ; move over YELLOW dispenser
G0 Z5.000 F800 ; descend to grab height
G4 P500  ; dwell — let block seat in socket
G0 Z80.000 F2000 ; rise with brick (carry speed)

;    [travel to brick]
;TYPE:Custom
G1 X50.000 Y150.000 E0.0500 F2000 ; position over col=0 row=1 (carry speed)
G92 E0   ; reset E after travel mark

;    [place]
;TYPE:Travel
G0 Z39.100 F800 ; slow approach (6 mm above target)
G1 Z33.100 F150 ; push brick onto studs
G4 P200  ; dwell 200 ms — ensure engagement
;TYPE:Travel
G0 Z80.000 F6000 ; retract to safe height

M73 P16 R0 Q16 S0  ; progress 16%
; ── Brick   11/63  [YELLOW]  col=  1  row=  1  →  X=58.0  Z=14.6 ──
;    [pick-up  YELLOW]
;TYPE:Travel
G0 X30.000 Y0.000 F6000 ; move over YELLOW dispenser
G0 Z5.000 F800 ; descend to grab height
G4 P500  ; dwell — let block seat in socket
G0 Z80.000 F2000 ; rise with brick (carry speed)

;    [travel to brick]
;TYPE:Custom
G1 X58.000 Y150.000 E0.0500 F2000 ; position over col=1 row=1 (carry speed)
G92 E0   ; reset E after travel mark

;    [place]
;TYPE:Travel
G0 Z39.100 F800 ; slow approach (6 mm above target)
G1 Z33.100 F150 ; push brick onto studs
G4 P200  ; dwell 200 ms — ensure engagement
;TYPE:Travel
G0 Z80.000 F6000 ; retract to safe height

M73 P17 R0 Q17 S0  ; progress 17%
; ── Brick   12/63  [YELLOW]  col=  2  row=  1  →  X=66.0  Z=14.6 ──
;    [pick-up  YELLOW]
;TYPE:Travel
G0 X30.000 Y0.000 F6000 ; move over YELLOW dispenser
G0 Z5.000 F800 ; descend to grab height
G4 P500  ; dwell — let block seat in socket
G0 Z80.000 F2000 ; rise with brick (carry speed)

;    [travel to brick]
;TYPE:Custom
G1 X66.000 Y150.000 E0.0500 F2000 ; position over col=2 row=1 (carry speed)
G92 E0   ; reset E after travel mark

;    [place]
;TYPE:Travel
G0 Z39.100 F800 ; slow approach (6 mm above target)
G1 Z33.100 F150 ; push brick onto studs
G4 P200  ; dwell 200 ms — ensure engagement
;TYPE:Travel
G0 Z80.000 F6000 ; retract to safe height

M73 P19 R0 Q19 S0  ; progress 19%
; ── Brick   13/63  [RED   ]  col=  3  row=  1  →  X=74.0  Z=14.6 ──
;    [pick-up  RED]
;TYPE:Travel
G0 X0.000 Y0.000 F6000 ; move over RED dispenser
G0 Z5.000 F800 ; descend to grab height
G4 P500  ; dwell — let block seat in socket
G0 Z80.000 F2000 ; rise with brick (carry speed)

;    [travel to brick]
;TYPE:Custom
G1 X74.000 Y150.000 E0.0500 F2000 ; position over col=3 row=1 (carry speed)
G92 E0   ; reset E after travel mark

;    [place]
;TYPE:Travel
G0 Z39.100 F800 ; slow approach (6 mm above target)
G1 Z33.100 F150 ; push brick onto studs
G4 P200  ; dwell 200 ms — ensure engagement
;TYPE:Travel
G0 Z80.000 F6000 ; retract to safe height

M73 P21 R0 Q21 S0  ; progress 21%
; ── Brick   14/63  [RED   ]  col=  4  row=  1  →  X=82.0  Z=14.6 ──
;    [pick-up  RED]
;TYPE:Travel
G0 X0.000 Y0.000 F6000 ; move over RED dispenser
G0 Z5.000 F800 ; descend to grab height
G4 P500  ; dwell — let block seat in socket
G0 Z80.000 F2000 ; rise with brick (carry speed)

;    [travel to brick]
;TYPE:Custom
G1 X82.000 Y150.000 E0.0500 F2000 ; position over col=4 row=1 (carry speed)
G92 E0   ; reset E after travel mark

;    [place]
;TYPE:Travel
G0 Z39.100 F800 ; slow approach (6 mm above target)
G1 Z33.100 F150 ; push brick onto studs
G4 P200  ; dwell 200 ms — ensure engagement
;TYPE:Travel
G0 Z80.000 F6000 ; retract to safe height

M73 P22 R0 Q22 S0  ; progress 22%
; ── Brick   15/63  [RED   ]  col=  5  row=  1  →  X=90.0  Z=14.6 ──
;    [pick-up  RED]
;TYPE:Travel
G0 X0.000 Y0.000 F6000 ; move over RED dispenser
G0 Z5.000 F800 ; descend to grab height
G4 P500  ; dwell — let block seat in socket
G0 Z80.000 F2000 ; rise with brick (carry speed)

;    [travel to brick]
;TYPE:Custom
G1 X90.000 Y150.000 E0.0500 F2000 ; position over col=5 row=1 (carry speed)
G92 E0   ; reset E after travel mark

;    [place]
;TYPE:Travel
G0 Z39.100 F800 ; slow approach (6 mm above target)
G1 Z33.100 F150 ; push brick onto studs
G4 P200  ; dwell 200 ms — ensure engagement
;TYPE:Travel
G0 Z80.000 F6000 ; retract to safe height

M73 P24 R0 Q24 S0  ; progress 24%
; ── Brick   16/63  [YELLOW]  col=  6  row=  1  →  X=98.0  Z=14.6 ──
;    [pick-up  YELLOW]
;TYPE:Travel
G0 X30.000 Y0.000 F6000 ; move over YELLOW dispenser
G0 Z5.000 F800 ; descend to grab height
G4 P500  ; dwell — let block seat in socket
G0 Z80.000 F2000 ; rise with brick (carry speed)

;    [travel to brick]
;TYPE:Custom
G1 X98.000 Y150.000 E0.0500 F2000 ; position over col=6 row=1 (carry speed)
G92 E0   ; reset E after travel mark

;    [place]
;TYPE:Travel
G0 Z39.100 F800 ; slow approach (6 mm above target)
G1 Z33.100 F150 ; push brick onto studs
G4 P200  ; dwell 200 ms — ensure engagement
;TYPE:Travel
G0 Z80.000 F6000 ; retract to safe height

M73 P25 R0 Q25 S0  ; progress 25%
; ── Brick   17/63  [YELLOW]  col=  7  row=  1  →  X=106.0  Z=14.6 ──
;    [pick-up  YELLOW]
;TYPE:Travel
G0 X30.000 Y0.000 F6000 ; move over YELLOW dispenser
G0 Z5.000 F800 ; descend to grab height
G4 P500  ; dwell — let block seat in socket
G0 Z80.000 F2000 ; rise with brick (carry speed)

;    [travel to brick]
;TYPE:Custom
G1 X106.000 Y150.000 E0.0500 F2000 ; position over col=7 row=1 (carry speed)
G92 E0   ; reset E after travel mark

;    [place]
;TYPE:Travel
G0 Z39.100 F800 ; slow approach (6 mm above target)
G1 Z33.100 F150 ; push brick onto studs
G4 P200  ; dwell 200 ms — ensure engagement
;TYPE:Travel
G0 Z80.000 F6000 ; retract to safe height

M73 P27 R0 Q27 S0  ; progress 27%
; ── Brick   18/63  [YELLOW]  col=  8  row=  1  →  X=114.0  Z=14.6 ──
;    [pick-up  YELLOW]
;TYPE:Travel
G0 X30.000 Y0.000 F6000 ; move over YELLOW dispenser
G0 Z5.000 F800 ; descend to grab height
G4 P500  ; dwell — let block seat in socket
G0 Z80.000 F2000 ; rise with brick (carry speed)

;    [travel to brick]
;TYPE:Custom
G1 X114.000 Y150.000 E0.0500 F2000 ; position over col=8 row=1 (carry speed)
G92 E0   ; reset E after travel mark

;    [place]
;TYPE:Travel
G0 Z39.100 F800 ; slow approach (6 mm above target)
G1 Z33.100 F150 ; push brick onto studs
G4 P200  ; dwell 200 ms — ensure engagement
;TYPE:Travel
G0 Z80.000 F6000 ; retract to safe height

;LAYER_CHANGE
;Z:24.200
;HEIGHT:9.600
; --- Layer 3/7 ---
M73 P29 R0 Q29 S0  ; progress 29%
; ── Brick   19/63  [YELLOW]  col=  0  row=  2  →  X=50.0  Z=24.2 ──
;    [pick-up  YELLOW]
;TYPE:Travel
G0 X30.000 Y0.000 F6000 ; move over YELLOW dispenser
G0 Z5.000 F800 ; descend to grab height
G4 P500  ; dwell — let block seat in socket
G0 Z80.000 F2000 ; rise with brick (carry speed)

;    [travel to brick]
;TYPE:Custom
G1 X50.000 Y150.000 E0.0500 F2000 ; position over col=0 row=2 (carry speed)
G92 E0   ; reset E after travel mark

;    [place]
;TYPE:Travel
G0 Z48.700 F800 ; slow approach (6 mm above target)
G1 Z42.700 F150 ; push brick onto studs
G4 P200  ; dwell 200 ms — ensure engagement
;TYPE:Travel
G0 Z80.000 F6000 ; retract to safe height

M73 P30 R0 Q30 S0  ; progress 30%
; ── Brick   20/63  [YELLOW]  col=  1  row=  2  →  X=58.0  Z=24.2 ──
;    [pick-up  YELLOW]
;TYPE:Travel
G0 X30.000 Y0.000 F6000 ; move over YELLOW dispenser
G0 Z5.000 F800 ; descend to grab height
G4 P500  ; dwell — let block seat in socket
G0 Z80.000 F2000 ; rise with brick (carry speed)

;    [travel to brick]
;TYPE:Custom
G1 X58.000 Y150.000 E0.0500 F2000 ; position over col=1 row=2 (carry speed)
G92 E0   ; reset E after travel mark

;    [place]
;TYPE:Travel
G0 Z48.700 F800 ; slow approach (6 mm above target)
G1 Z42.700 F150 ; push brick onto studs
G4 P200  ; dwell 200 ms — ensure engagement
;TYPE:Travel
G0 Z80.000 F6000 ; retract to safe height

M73 P32 R0 Q32 S0  ; progress 32%
; ── Brick   21/63  [RED   ]  col=  2  row=  2  →  X=66.0  Z=24.2 ──
;    [pick-up  RED]
;TYPE:Travel
G0 X0.000 Y0.000 F6000 ; move over RED dispenser
G0 Z5.000 F800 ; descend to grab height
G4 P500  ; dwell — let block seat in socket
G0 Z80.000 F2000 ; rise with brick (carry speed)

;    [travel to brick]
;TYPE:Custom
G1 X66.000 Y150.000 E0.0500 F2000 ; position over col=2 row=2 (carry speed)
G92 E0   ; reset E after travel mark

;    [place]
;TYPE:Travel
G0 Z48.700 F800 ; slow approach (6 mm above target)
G1 Z42.700 F150 ; push brick onto studs
