; ============================================================
; LEGO Wall G-code  —  generated by nbt_to_gcode.py
; Structure : 12 cols wide × 5 rows tall
; Bricks    : 60 total
; Brick size: 16.0 mm × 9.6 mm (W × H)
; Wall X    : 50.0 … 242.0 mm
; Wall Z    : 5.0 … 53.0 mm
; ============================================================

G21        ; mm mode
G90        ; absolute positioning
G28        ; home all axes

G0 Z80.000 F6000 ; raise to safe travel height

; ── Brick    1/60  col=  0  row=  0  →  X=50.0  Z=5.0 ──
;    [pick-up]
G0 X0.000 Y0.000 F6000 ; move over dispenser
G0 Z5.000 F800 ; descend to grab height
G4 P500  ; dwell — let block seat in socket
G0 Z80.000 F6000 ; rise with brick

;    [travel]
G0 X50.000 Y150.000 F6000 ; position over col=0 row=0

;    [place]
G0 Z29.500 F800 ; slow approach (6 mm above target)
G1 Z23.500 F150 ; push brick onto studs
G4 P200  ; dwell 200 ms — ensure engagement
G0 Z80.000 F6000 ; retract to safe height

; ── Brick    2/60  col=  1  row=  0  →  X=66.0  Z=5.0 ──
;    [pick-up]
G0 X0.000 Y0.000 F6000 ; move over dispenser
G0 Z5.000 F800 ; descend to grab height
G4 P500  ; dwell — let block seat in socket
G0 Z80.000 F6000 ; rise with brick

;    [travel]
G0 X66.000 Y150.000 F6000 ; position over col=1 row=0

;    [place]
G0 Z29.500 F800 ; slow approach (6 mm above target)
G1 Z23.500 F150 ; push brick onto studs
G4 P200  ; dwell 200 ms — ensure engagement
G0 Z80.000 F6000 ; retract to safe height

; ── Brick    3/60  col=  2  row=  0  →  X=82.0  Z=5.0 ──
;    [pick-up]
G0 X0.000 Y0.000 F6000 ; move over dispenser
G0 Z5.000 F800 ; descend to grab height
G4 P500  ; dwell — let block seat in socket
G0 Z80.000 F6000 ; rise with brick

;    [travel]
G0 X82.000 Y150.000 F6000 ; position over col=2 row=0

;    [place]
G0 Z29.500 F800 ; slow approach (6 mm above target)
G1 Z23.500 F150 ; push brick onto studs
G4 P200  ; dwell 200 ms — ensure engagement
G0 Z80.000 F6000 ; retract to safe height

; ── Brick    4/60  col=  3  row=  0  →  X=98.0  Z=5.0 ──
;    [pick-up]
G0 X0.000 Y0.000 F6000 ; move over dispenser
G0 Z5.000 F800 ; descend to grab height
G4 P500  ; dwell — let block seat in socket
G0 Z80.000 F6000 ; rise with brick

;    [travel]
G0 X98.000 Y150.000 F6000 ; position over col=3 row=0

;    [place]
G0 Z29.500 F800 ; slow approach (6 mm above target)
G1 Z23.500 F150 ; push brick onto studs
G4 P200  ; dwell 200 ms — ensure engagement
G0 Z80.000 F6000 ; retract to safe height

; ── Brick    5/60  col=  4  row=  0  →  X=114.0  Z=5.0 ──
;    [pick-up]
G0 X0.000 Y0.000 F6000 ; move over dispenser
G0 Z5.000 F800 ; descend to grab height
G4 P500  ; dwell — let block seat in socket
G0 Z80.000 F6000 ; rise with brick

;    [travel]
G0 X114.000 Y150.000 F6000 ; position over col=4 row=0

;    [place]
G0 Z29.500 F800 ; slow approach (6 mm above target)
G1 Z23.500 F150 ; push brick onto studs
G4 P200  ; dwell 200 ms — ensure engagement
G0 Z80.000 F6000 ; retract to safe height

; ── Brick    6/60  col=  5  row=  0  →  X=130.0  Z=5.0 ──
;    [pick-up]
G0 X0.000 Y0.000 F6000 ; move over dispenser
G0 Z5.000 F800 ; descend to grab height
G4 P500  ; dwell — let block seat in socket
G0 Z80.000 F6000 ; rise with brick

;    [travel]
G0 X130.000 Y150.000 F6000 ; position over col=5 row=0

;    [place]
G0 Z29.500 F800 ; slow approach (6 mm above target)
G1 Z23.500 F150 ; push brick onto studs
G4 P200  ; dwell 200 ms — ensure engagement
G0 Z80.000 F6000 ; retract to safe height

; ── Brick    7/60  col=  6  row=  0  →  X=146.0  Z=5.0 ──
;    [pick-up]
G0 X0.000 Y0.000 F6000 ; move over dispenser
G0 Z5.000 F800 ; descend to grab height
G4 P500  ; dwell — let block seat in socket
G0 Z80.000 F6000 ; rise with brick

;    [travel]
G0 X146.000 Y150.000 F6000 ; position over col=6 row=0

;    [place]
G0 Z29.500 F800 ; slow approach (6 mm above target)
G1 Z23.500 F150 ; push brick onto studs
G4 P200  ; dwell 200 ms — ensure engagement
G0 Z80.000 F6000 ; retract to safe height

; ── Brick    8/60  col=  7  row=  0  →  X=162.0  Z=5.0 ──
;    [pick-up]
G0 X0.000 Y0.000 F6000 ; move over dispenser
G0 Z5.000 F800 ; descend to grab height
G4 P500  ; dwell — let block seat in socket
G0 Z80.000 F6000 ; rise with brick

;    [travel]
G0 X162.000 Y150.000 F6000 ; position over col=7 row=0

;    [place]
G0 Z29.500 F800 ; slow approach (6 mm above target)
G1 Z23.500 F150 ; push brick onto studs
G4 P200  ; dwell 200 ms — ensure engagement
G0 Z80.000 F6000 ; retract to safe height

; ── Brick    9/60  col=  8  row=  0  →  X=178.0  Z=5.0 ──
;    [pick-up]
G0 X0.000 Y0.000 F6000 ; move over dispenser
G0 Z5.000 F800 ; descend to grab height
G4 P500  ; dwell — let block seat in socket
G0 Z80.000 F6000 ; rise with brick

;    [travel]
G0 X178.000 Y150.000 F6000 ; position over col=8 row=0

;    [place]
G0 Z29.500 F800 ; slow approach (6 mm above target)
G1 Z23.500 F150 ; push brick onto studs
G4 P200  ; dwell 200 ms — ensure engagement
G0 Z80.000 F6000 ; retract to safe height

; ── Brick   10/60  col=  9  row=  0  →  X=194.0  Z=5.0 ──
;    [pick-up]
G0 X0.000 Y0.000 F6000 ; move over dispenser
G0 Z5.000 F800 ; descend to grab height
G4 P500  ; dwell — let block seat in socket
G0 Z80.000 F6000 ; rise with brick

;    [travel]
G0 X194.000 Y150.000 F6000 ; position over col=9 row=0

;    [place]
G0 Z29.500 F800 ; slow approach (6 mm above target)
G1 Z23.500 F150 ; push brick onto studs
G4 P200  ; dwell 200 ms — ensure engagement
G0 Z80.000 F6000 ; retract to safe height

; ── Brick   11/60  col= 10  row=  0  →  X=210.0  Z=5.0 ──
;    [pick-up]
G0 X0.000 Y0.000 F6000 ; move over dispenser
G0 Z5.000 F800 ; descend to grab height
G4 P500  ; dwell — let block seat in socket
G0 Z80.000 F6000 ; rise with brick

;    [travel]
G0 X210.000 Y150.000 F6000 ; position over col=10 row=0

;    [place]
G0 Z29.500 F800 ; slow approach (6 mm above target)
G1 Z23.500 F150 ; push brick onto studs
G4 P200  ; dwell 200 ms — ensure engagement
G0 Z80.000 F6000 ; retract to safe height

; ── Brick   12/60  col= 11  row=  0  →  X=226.0  Z=5.0 ──
;    [pick-up]
G0 X0.000 Y0.000 F6000 ; move over dispenser
G0 Z5.000 F800 ; descend to grab height
G4 P500  ; dwell — let block seat in socket
G0 Z80.000 F6000 ; rise with brick

;    [travel]
G0 X226.000 Y150.000 F6000 ; position over col=11 row=0

;    [place]
G0 Z29.500 F800 ; slow approach (6 mm above target)
G1 Z23.500 F150 ; push brick onto studs
G4 P200  ; dwell 200 ms — ensure engagement
G0 Z80.000 F6000 ; retract to safe height

; ── Brick   13/60  col=  0  row=  1  →  X=50.0  Z=14.6 ──
;    [pick-up]
G0 X0.000 Y0.000 F6000 ; move over dispenser
G0 Z5.000 F800 ; descend to grab height
G4 P500  ; dwell — let block seat in socket
G0 Z80.000 F6000 ; rise with brick

;    [travel]
G0 X50.000 Y150.000 F6000 ; position over col=0 row=1

;    [place]
G0 Z39.100 F800 ; slow approach (6 mm above target)
G1 Z33.100 F150 ; push brick onto studs
G4 P200  ; dwell 200 ms — ensure engagement
G0 Z80.000 F6000 ; retract to safe height

; ── Brick   14/60  col=  1  row=  1  →  X=66.0  Z=14.6 ──
;    [pick-up]
G0 X0.000 Y0.000 F6000 ; move over dispenser
G0 Z5.000 F800 ; descend to grab height
G4 P500  ; dwell — let block seat in socket
G0 Z80.000 F6000 ; rise with brick

;    [travel]
G0 X66.000 Y150.000 F6000 ; position over col=1 row=1

;    [place]
G0 Z39.100 F800 ; slow approach (6 mm above target)
G1 Z33.100 F150 ; push brick onto studs
G4 P200  ; dwell 200 ms — ensure engagement
G0 Z80.000 F6000 ; retract to safe height

; ── Brick   15/60  col=  2  row=  1  →  X=82.0  Z=14.6 ──
;    [pick-up]
G0 X0.000 Y0.000 F6000 ; move over dispenser
G0 Z5.000 F800 ; descend to grab height
G4 P500  ; dwell — let block seat in socket
G0 Z80.000 F6000 ; rise with brick

;    [travel]
G0 X82.000 Y150.000 F6000 ; position over col=2 row=1

;    [place]
G0 Z39.100 F800 ; slow approach (6 mm above target)
G1 Z33.100 F150 ; push brick onto studs
G4 P200  ; dwell 200 ms — ensure engagement
G0 Z80.000 F6000 ; retract to safe height

; ── Brick   16/60  col=  3  row=  1  →  X=98.0  Z=14.6 ──
;    [pick-up]
G0 X0.000 Y0.000 F6000 ; move over dispenser
G0 Z5.000 F800 ; descend to grab height
G4 P500  ; dwell — let block seat in socket
G0 Z80.000 F6000 ; rise with brick

;    [travel]
G0 X98.000 Y150.000 F6000 ; position over col=3 row=1

;    [place]
G0 Z39.100 F800 ; slow approach (6 mm above target)
G1 Z33.100 F150 ; push brick onto studs
G4 P200  ; dwell 200 ms — ensure engagement
G0 Z80.000 F6000 ; retract to safe height

; ── Brick   17/60  col=  4  row=  1  →  X=114.0  Z=14.6 ──
;    [pick-up]
G0 X0.000 Y0.000 F6000 ; move over dispenser
G0 Z5.000 F800 ; descend to grab height
G4 P500  ; dwell — let block seat in socket
G0 Z80.000 F6000 ; rise with brick

;    [travel]
G0 X114.000 Y150.000 F6000 ; position over col=4 row=1

;    [place]
G0 Z39.100 F800 ; slow approach (6 mm above target)
G1 Z33.100 F150 ; push brick onto studs
G4 P200  ; dwell 200 ms — ensure engagement
G0 Z80.000 F6000 ; retract to safe height

; ── Brick   18/60  col=  5  row=  1  →  X=130.0  Z=14.6 ──
;    [pick-up]
G0 X0.000 Y0.000 F6000 ; move over dispenser
G0 Z5.000 F800 ; descend to grab height
G4 P500  ; dwell — let block seat in socket
G0 Z80.000 F6000 ; rise with brick

;    [travel]
G0 X130.000 Y150.000 F6000 ; position over col=5 row=1

;    [place]
G0 Z39.100 F800 ; slow approach (6 mm above target)
G1 Z33.100 F150 ; push brick onto studs
G4 P200  ; dwell 200 ms — ensure engagement
G0 Z80.000 F6000 ; retract to safe height

; ── Brick   19/60  col=  6  row=  1  →  X=146.0  Z=14.6 ──
;    [pick-up]
G0 X0.000 Y0.000 F6000 ; move over dispenser
G0 Z5.000 F800 ; descend to grab height
G4 P500  ; dwell — let block seat in socket
G0 Z80.000 F6000 ; rise with brick

;    [travel]
G0 X146.000 Y150.000 F6000 ; position over col=6 row=1

;    [place]
G0 Z39.100 F800 ; slow approach (6 mm above target)
G1 Z33.100 F150 ; push brick onto studs
G4 P200  ; dwell 200 ms — ensure engagement
G0 Z80.000 F6000 ; retract to safe height

; ── Brick   20/60  col=  7  row=  1  →  X=162.0  Z=14.6 ──
;    [pick-up]
G0 X0.000 Y0.000 F6000 ; move over dispenser
G0 Z5.000 F800 ; descend to grab height
G4 P500  ; dwell — let block seat in socket
G0 Z80.000 F6000 ; rise with brick

;    [travel]
G0 X162.000 Y150.000 F6000 ; position over col=7 row=1

;    [place]
G0 Z39.100 F800 ; slow approach (6 mm above target)
G1 Z33.100 F150 ; push brick onto studs
G4 P200  ; dwell 200 ms — ensure engagement
G0 Z80.000 F6000 ; retract to safe height

; ── Brick   21/60  col=  8  row=  1  →  X=178.0  Z=14.6 ──
;    [pick-up]
G0 X0.000 Y0.000 F6000 ; move over dispenser
G0 Z5.000 F800 ; descend to grab height
G4 P500  ; dwell — let block seat in socket
G0 Z80.000 F6000 ; rise with brick

;    [travel]
G0 X178.000 Y150.000 F6000 ; position over col=8 row=1

;    [place]
G0 Z39.100 F800 ; slow approach (6 mm above target)
G1 Z33.100 F150 ; push brick onto studs
G4 P200  ; dwell 200 ms — ensure engagement
G0 Z80.000 F6000 ; retract to safe height

; ── Brick   22/60  col=  9  row=  1  →  X=194.0  Z=14.6 ──
;    [pick-up]
G0 X0.000 Y0.000 F6000 ; move over dispenser
G0 Z5.000 F800 ; descend to grab height
G4 P500  ; dwell — let block seat in socket
G0 Z80.000 F6000 ; rise with brick

;    [travel]
G0 X194.000 Y150.000 F6000 ; position over col=9 row=1

;    [place]
G0 Z39.100 F800 ; slow approach (6 mm above target)
G1 Z33.100 F150 ; push brick onto studs
G4 P200  ; dwell 200 ms — ensure engagement
G0 Z80.000 F6000 ; retract to safe height

; ── Brick   23/60  col= 10  row=  1  →  X=210.0  Z=14.6 ──
;    [pick-up]
G0 X0.000 Y0.000 F6000 ; move over dispenser
G0 Z5.000 F800 ; descend to grab height
G4 P500  ; dwell — let block seat in socket
G0 Z80.000 F6000 ; rise with brick

;    [travel]
G0 X210.000 Y150.000 F6000 ; position over col=10 row=1

;    [place]
G0 Z39.100 F800 ; slow approach (6 mm above target)
G1 Z33.100 F150 ; push brick onto studs
G4 P200  ; dwell 200 ms — ensure engagement
G0 Z80.000 F6000 ; retract to safe height

; ── Brick   24/60  col= 11  row=  1  →  X=226.0  Z=14.6 ──
;    [pick-up]
G0 X0.000 Y0.000 F6000 ; move over dispenser
G0 Z5.000 F800 ; descend to grab height
G4 P500  ; dwell — let block seat in socket
G0 Z80.000 F6000 ; rise with brick

;    [travel]
G0 X226.000 Y150.000 F6000 ; position over col=11 row=1

;    [place]
G0 Z39.100 F800 ; slow approach (6 mm above target)
G1 Z33.100 F150 ; push brick onto studs
G4 P200  ; dwell 200 ms — ensure engagement
G0 Z80.000 F6000 ; retract to safe height

; ── Brick   25/60  col=  0  row=  2  →  X=50.0  Z=24.2 ──
;    [pick-up]
G0 X0.000 Y0.000 F6000 ; move over dispenser
G0 Z5.000 F800 ; descend to grab height
G4 P500  ; dwell — let block seat in socket
G0 Z80.000 F6000 ; rise with brick

;    [travel]
G0 X50.000 Y150.000 F6000 ; position over col=0 row=2

;    [place]
G0 Z48.700 F800 ; slow approach (6 mm above target)
G1 Z42.700 F150 ; push brick onto studs
G4 P200  ; dwell 200 ms — ensure engagement
G0 Z80.000 F6000 ; retract to safe height

; ── Brick   26/60  col=  1  row=  2  →  X=66.0  Z=24.2 ──
;    [pick-up]
G0 X0.000 Y0.000 F6000 ; move over dispenser
G0 Z5.000 F800 ; descend to grab height
G4 P500  ; dwell — let block seat in socket
G0 Z80.000 F6000 ; rise with brick

;    [travel]
G0 X66.000 Y150.000 F6000 ; position over col=1 row=2

;    [place]
G0 Z48.700 F800 ; slow approach (6 mm above target)
G1 Z42.700 F150 ; push brick onto studs
G4 P200  ; dwell 200 ms — ensure engagement
G0 Z80.000 F6000 ; retract to safe height

; ── Brick   27/60  col=  2  row=  2  →  X=82.0  Z=24.2 ──
;    [pick-up]
G0 X0.000 Y0.000 F6000 ; move over dispenser
G0 Z5.000 F800 ; descend to grab height
G4 P500  ; dwell — let block seat in socket
G0 Z80.000 F6000 ; rise with brick

;    [travel]
G0 X82.000 Y150.000 F6000 ; position over col=2 row=2

;    [place]
G0 Z48.700 F800 ; slow approach (6 mm above target)
G1 Z42.700 F150 ; push brick onto studs
G4 P200  ; dwell 200 ms — ensure engagement
G0 Z80.000 F6000 ; retract to safe height

; ── Brick   28/60  col=  3  row=  2  →  X=98.0  Z=24.2 ──
;    [pick-up]
G0 X0.000 Y0.000 F6000 ; move over dispenser
G0 Z5.000 F800 ; descend to grab height
G4 P500  ; dwell — let block seat in socket
G0 Z80.000 F6000 ; rise with brick

;    [travel]
G0 X98.000 Y150.000 F6000 ; position over col=3 row=2

;    [place]
G0 Z48.700 F800 ; slow approach (6 mm above target)
G1 Z42.700 F150 ; push brick onto studs
G4 P200  ; dwell 200 ms — ensure engagement
G0 Z80.000 F6000 ; retract to safe height

; ── Brick   29/60  col=  4  row=  2  →  X=114.0  Z=24.2 ──
;    [pick-up]
G0 X0.000 Y0.000 F6000 ; move over dispenser
G0 Z5.000 F800 ; descend to grab height
G4 P500  ; dwell — let block seat in socket
G0 Z80.000 F6000 ; rise with brick

;    [travel]
G0 X114.000 Y150.000 F6000 ; position over col=4 row=2

;    [place]
G0 Z48.700 F800 ; slow approach (6 mm above target)
G1 Z42.700 F150 ; push brick onto studs
G4 P200  ; dwell 200 ms — ensure engagement
G0 Z80.000 F6000 ; retract to safe height

; ── Brick   30/60  col=  5  row=  2  →  X=130.0  Z=24.2 ──
;    [pick-up]
G0 X0.000 Y0.000 F6000 ; move over dispenser
G0 Z5.000 F800 ; descend to grab height
G4 P500  ; dwell — let block seat in socket
G0 Z80.000 F6000 ; rise with brick

;    [travel]
G0 X130.000 Y150.000 F6000 ; position over col=5 row=2

;    [place]
G0 Z48.700 F800 ; slow approach (6 mm above target)
G1 Z42.700 F150 ; push brick onto studs
G4 P200  ; dwell 200 ms — ensure engagement
G0 Z80.000 F6000 ; retract to safe height

; ── Brick   31/60  col=  6  row=  2  →  X=146.0  Z=24.2 ──
;    [pick-up]
G0 X0.000 Y0.000 F6000 ; move over dispenser
G0 Z5.000 F800 ; descend to grab height
G4 P500  ; dwell — let block seat in socket
G0 Z80.000 F6000 ; rise with brick

;    [travel]
G0 X146.000 Y150.000 F6000 ; position over col=6 row=2

;    [place]
G0 Z48.700 F800 ; slow approach (6 mm above target)
G1 Z42.700 F150 ; push brick onto studs
G4 P200  ; dwell 200 ms — ensure engagement
G0 Z80.000 F6000 ; retract to safe height

; ── Brick   32/60  col=  7  row=  2  →  X=162.0  Z=24.2 ──
;    [pick-up]
G0 X0.000 Y0.000 F6000 ; move over dispenser
G0 Z5.000 F800 ; descend to grab height
G4 P500  ; dwell — let block seat in socket
G0 Z80.000 F6000 ; rise with brick

;    [travel]
G0 X162.000 Y150.000 F6000 ; position over col=7 row=2

;    [place]
G0 Z48.700 F800 ; slow approach (6 mm above target)
G1 Z42.700 F150 ; push brick onto studs
G4 P200  ; dwell 200 ms — ensure engagement
G0 Z80.000 F6000 ; retract to safe height

; ── Brick   33/60  col=  8  row=  2  →  X=178.0  Z=24.2 ──
;    [pick-up]
G0 X0.000 Y0.000 F6000 ; move over dispenser
G0 Z5.000 F800 ; descend to grab height
G4 P500  ; dwell — let block seat in socket
G0 Z80.000 F6000 ; rise with brick

;    [travel]
G0 X178.000 Y150.000 F6000 ; position over col=8 row=2

;    [place]
G0 Z48.700 F800 ; slow approach (6 mm above target)
G1 Z42.700 F150 ; push brick onto studs
G4 P200  ; dwell 200 ms — ensure engagement
G0 Z80.000 F6000 ; retract to safe height

; ── Brick   34/60  col=  9  row=  2  →  X=194.0  Z=24.2 ──
;    [pick-up]
G0 X0.000 Y0.000 F6000 ; move over dispenser
G0 Z5.000 F800 ; descend to grab height
G4 P500  ; dwell — let block seat in socket
G0 Z80.000 F6000 ; rise with brick

;    [travel]
G0 X194.000 Y150.000 F6000 ; position over col=9 row=2

;    [place]
G0 Z48.700 F800 ; slow approach (6 mm above target)
G1 Z42.700 F150 ; push brick onto studs
G4 P200  ; dwell 200 ms — ensure engagement
G0 Z80.000 F6000 ; retract to safe height

; ── Brick   35/60  col= 10  row=  2  →  X=210.0  Z=24.2 ──
;    [pick-up]
G0 X0.000 Y0.000 F6000 ; move over dispenser
G0 Z5.000 F800 ; descend to grab height
G4 P500  ; dwell — let block seat in socket
G0 Z80.000 F6000 ; rise with brick

;    [travel]
G0 X210.000 Y150.000 F6000 ; position over col=10 row=2

;    [place]
G0 Z48.700 F800 ; slow approach (6 mm above target)
G1 Z42.700 F150 ; push brick onto studs
G4 P200  ; dwell 200 ms — ensure engagement
G0 Z80.000 F6000 ; retract to safe height

; ── Brick   36/60  col= 11  row=  2  →  X=226.0  Z=24.2 ──
;    [pick-up]
G0 X0.000 Y0.000 F6000 ; move over dispenser
G0 Z5.000 F800 ; descend to grab height
G4 P500  ; dwell — let block seat in socket
G0 Z80.000 F6000 ; rise with brick

;    [travel]
G0 X226.000 Y150.000 F6000 ; position over col=11 row=2

;    [place]
G0 Z48.700 F800 ; slow approach (6 mm above target)
G1 Z42.700 F150 ; push brick onto studs
G4 P200  ; dwell 200 ms — ensure engagement
G0 Z80.000 F6000 ; retract to safe height

; ── Brick   37/60  col=  0  row=  3  →  X=50.0  Z=33.8 ──
;    [pick-up]
G0 X0.000 Y0.000 F6000 ; move over dispenser
G0 Z5.000 F800 ; descend to grab height
G4 P500  ; dwell — let block seat in socket
G0 Z80.000 F6000 ; rise with brick

;    [travel]
G0 X50.000 Y150.000 F6000 ; position over col=0 row=3

;    [place]
G0 Z58.300 F800 ; slow approach (6 mm above target)
G1 Z52.300 F150 ; push brick onto studs
G4 P200  ; dwell 200 ms — ensure engagement
G0 Z80.000 F6000 ; retract to safe height

; ── Brick   38/60  col=  1  row=  3  →  X=66.0  Z=33.8 ──
;    [pick-up]
G0 X0.000 Y0.000 F6000 ; move over dispenser
G0 Z5.000 F800 ; descend to grab height
G4 P500  ; dwell — let block seat in socket
G0 Z80.000 F6000 ; rise with brick

;    [travel]
G0 X66.000 Y150.000 F6000 ; position over col=1 row=3

;    [place]
G0 Z58.300 F800 ; slow approach (6 mm above target)
G1 Z52.300 F150 ; push brick onto studs
G4 P200  ; dwell 200 ms — ensure engagement
G0 Z80.000 F6000 ; retract to safe height

; ── Brick   39/60  col=  2  row=  3  →  X=82.0  Z=33.8 ──
;    [pick-up]
G0 X0.000 Y0.000 F6000 ; move over dispenser
G0 Z5.000 F800 ; descend to grab height
G4 P500  ; dwell — let block seat in socket
G0 Z80.000 F6000 ; rise with brick

;    [travel]
G0 X82.000 Y150.000 F6000 ; position over col=2 row=3

;    [place]
G0 Z58.300 F800 ; slow approach (6 mm above target)
G1 Z52.300 F150 ; push brick onto studs
G4 P200  ; dwell 200 ms — ensure engagement
G0 Z80.000 F6000 ; retract to safe height

; ── Brick   40/60  col=  3  row=  3  →  X=98.0  Z=33.8 ──
;    [pick-up]
G0 X0.000 Y0.000 F6000 ; move over dispenser
G0 Z5.000 F800 ; descend to grab height
G4 P500  ; dwell — let block seat in socket
G0 Z80.000 F6000 ; rise with brick

;    [travel]
G0 X98.000 Y150.000 F6000 ; position over col=3 row=3

;    [place]
G0 Z58.300 F800 ; slow approach (6 mm above target)
G1 Z52.300 F150 ; push brick onto studs
G4 P200  ; dwell 200 ms — ensure engagement
G0 Z80.000 F6000 ; retract to safe height

; ── Brick   41/60  col=  4  row=  3  →  X=114.0  Z=33.8 ──
;    [pick-up]
G0 X0.000 Y0.000 F6000 ; move over dispenser
G0 Z5.000 F800 ; descend to grab height
G4 P500  ; dwell — let block seat in socket
G0 Z80.000 F6000 ; rise with brick

;    [travel]
G0 X114.000 Y150.000 F6000 ; position over col=4 row=3

;    [place]
G0 Z58.300 F800 ; slow approach (6 mm above target)
G1 Z52.300 F150 ; push brick onto studs
G4 P200  ; dwell 200 ms — ensure engagement
G0 Z80.000 F6000 ; retract to safe height

; ── Brick   42/60  col=  5  row=  3  →  X=130.0  Z=33.8 ──
;    [pick-up]
G0 X0.000 Y0.000 F6000 ; move over dispenser
G0 Z5.000 F800 ; descend to grab height
G4 P500  ; dwell — let block seat in socket
G0 Z80.000 F6000 ; rise with brick

;    [travel]
G0 X130.000 Y150.000 F6000 ; position over col=5 row=3

;    [place]
G0 Z58.300 F800 ; slow approach (6 mm above target)
G1 Z52.300 F150 ; push brick onto studs
G4 P200  ; dwell 200 ms — ensure engagement
G0 Z80.000 F6000 ; retract to safe height

; ── Brick   43/60  col=  6  row=  3  →  X=146.0  Z=33.8 ──
;    [pick-up]
G0 X0.000 Y0.000 F6000 ; move over dispenser
G0 Z5.000 F800 ; descend to grab height
G4 P500  ; dwell — let block seat in socket
G0 Z80.000 F6000 ; rise with brick

;    [travel]
G0 X146.000 Y150.000 F6000 ; position over col=6 row=3

;    [place]
G0 Z58.300 F800 ; slow approach (6 mm above target)
G1 Z52.300 F150 ; push brick onto studs
G4 P200  ; dwell 200 ms — ensure engagement
G0 Z80.000 F6000 ; retract to safe height

; ── Brick   44/60  col=  7  row=  3  →  X=162.0  Z=33.8 ──
;    [pick-up]
G0 X0.000 Y0.000 F6000 ; move over dispenser
G0 Z5.000 F800 ; descend to grab height
G4 P500  ; dwell — let block seat in socket
G0 Z80.000 F6000 ; rise with brick

;    [travel]
G0 X162.000 Y150.000 F6000 ; position over col=7 row=3

;    [place]
G0 Z58.300 F800 ; slow approach (6 mm above target)
G1 Z52.300 F150 ; push brick onto studs
G4 P200  ; dwell 200 ms — ensure engagement
G0 Z80.000 F6000 ; retract to safe height

; ── Brick   45/60  col=  8  row=  3  →  X=178.0  Z=33.8 ──
;    [pick-up]
G0 X0.000 Y0.000 F6000 ; move over dispenser
G0 Z5.000 F800 ; descend to grab height
G4 P500  ; dwell — let block seat in socket
G0 Z80.000 F6000 ; rise with brick

;    [travel]
G0 X178.000 Y150.000 F6000 ; position over col=8 row=3

;    [place]
G0 Z58.300 F800 ; slow approach (6 mm above target)
G1 Z52.300 F150 ; push brick onto studs
G4 P200  ; dwell 200 ms — ensure engagement
G0 Z80.000 F6000 ; retract to safe height

; ── Brick   46/60  col=  9  row=  3  →  X=194.0  Z=33.8 ──
;    [pick-up]
G0 X0.000 Y0.000 F6000 ; move over dispenser
G0 Z5.000 F800 ; descend to grab height
G4 P500  ; dwell — let block seat in socket
G0 Z80.000 F6000 ; rise with brick

;    [travel]
G0 X194.000 Y150.000 F6000 ; position over col=9 row=3

;    [place]
G0 Z58.300 F800 ; slow approach (6 mm above target)
G1 Z52.300 F150 ; push brick onto studs
G4 P200  ; dwell 200 ms — ensure engagement
G0 Z80.000 F6000 ; retract to safe height

; ── Brick   47/60  col= 10  row=  3  →  X=210.0  Z=33.8 ──
;    [pick-up]
G0 X0.000 Y0.000 F6000 ; move over dispenser
G0 Z5.000 F800 ; descend to grab height
G4 P500  ; dwell — let block seat in socket
G0 Z80.000 F6000 ; rise with brick

;    [travel]
G0 X210.000 Y150.000 F6000 ; position over col=10 row=3

;    [place]
G0 Z58.300 F800 ; slow approach (6 mm above target)
G1 Z52.300 F150 ; push brick onto studs
G4 P200  ; dwell 200 ms — ensure engagement
G0 Z80.000 F6000 ; retract to safe height

; ── Brick   48/60  col= 11  row=  3  →  X=226.0  Z=33.8 ──
;    [pick-up]
G0 X0.000 Y0.000 F6000 ; move over dispenser
G0 Z5.000 F800 ; descend to grab height
G4 P500  ; dwell — let block seat in socket
G0 Z80.000 F6000 ; rise with brick

;    [travel]
G0 X226.000 Y150.000 F6000 ; position over col=11 row=3

;    [place]
G0 Z58.300 F800 ; slow approach (6 mm above target)
G1 Z52.300 F150 ; push brick onto studs
G4 P200  ; dwell 200 ms — ensure engagement
G0 Z80.000 F6000 ; retract to safe height

; ── Brick   49/60  col=  0  row=  4  →  X=50.0  Z=43.4 ──
;    [pick-up]
G0 X0.000 Y0.000 F6000 ; move over dispenser
G0 Z5.000 F800 ; descend to grab height
G4 P500  ; dwell — let block seat in socket
G0 Z80.000 F6000 ; rise with brick

;    [travel]
G0 X50.000 Y150.000 F6000 ; position over col=0 row=4

;    [place]
G0 Z67.900 F800 ; slow approach (6 mm above target)
G1 Z61.900 F150 ; push brick onto studs
G4 P200  ; dwell 200 ms — ensure engagement
G0 Z80.000 F6000 ; retract to safe height

; ── Brick   50/60  col=  1  row=  4  →  X=66.0  Z=43.4 ──
;    [pick-up]
G0 X0.000 Y0.000 F6000 ; move over dispenser
G0 Z5.000 F800 ; descend to grab height
G4 P500  ; dwell — let block seat in socket
G0 Z80.000 F6000 ; rise with brick

;    [travel]
G0 X66.000 Y150.000 F6000 ; position over col=1 row=4

;    [place]
G0 Z67.900 F800 ; slow approach (6 mm above target)
G1 Z61.900 F150 ; push brick onto studs
G4 P200  ; dwell 200 ms — ensure engagement
G0 Z80.000 F6000 ; retract to safe height

; ── Brick   51/60  col=  2  row=  4  →  X=82.0  Z=43.4 ──
;    [pick-up]
G0 X0.000 Y0.000 F6000 ; move over dispenser
G0 Z5.000 F800 ; descend to grab height
G4 P500  ; dwell — let block seat in socket
G0 Z80.000 F6000 ; rise with brick

;    [travel]
G0 X82.000 Y150.000 F6000 ; position over col=2 row=4

;    [place]
G0 Z67.900 F800 ; slow approach (6 mm above target)
G1 Z61.900 F150 ; push brick onto studs
G4 P200  ; dwell 200 ms — ensure engagement
G0 Z80.000 F6000 ; retract to safe height

; ── Brick   52/60  col=  3  row=  4  →  X=98.0  Z=43.4 ──
;    [pick-up]
G0 X0.000 Y0.000 F6000 ; move over dispenser
G0 Z5.000 F800 ; descend to grab height
G4 P500  ; dwell — let block seat in socket
G0 Z80.000 F6000 ; rise with brick

;    [travel]
G0 X98.000 Y150.000 F6000 ; position over col=3 row=4

;    [place]
G0 Z67.900 F800 ; slow approach (6 mm above target)
G1 Z61.900 F150 ; push brick onto studs
G4 P200  ; dwell 200 ms — ensure engagement
G0 Z80.000 F6000 ; retract to safe height

; ── Brick   53/60  col=  4  row=  4  →  X=114.0  Z=43.4 ──
;    [pick-up]
G0 X0.000 Y0.000 F6000 ; move over dispenser
G0 Z5.000 F800 ; descend to grab height
G4 P500  ; dwell — let block seat in socket
G0 Z80.000 F6000 ; rise with brick

;    [travel]
G0 X114.000 Y150.000 F6000 ; position over col=4 row=4

;    [place]
G0 Z67.900 F800 ; slow approach (6 mm above target)
G1 Z61.900 F150 ; push brick onto studs
G4 P200  ; dwell 200 ms — ensure engagement
G0 Z80.000 F6000 ; retract to safe height

; ── Brick   54/60  col=  5  row=  4  →  X=130.0  Z=43.4 ──
;    [pick-up]
G0 X0.000 Y0.000 F6000 ; move over dispenser
G0 Z5.000 F800 ; descend to grab height
G4 P500  ; dwell — let block seat in socket
G0 Z80.000 F6000 ; rise with brick

;    [travel]
G0 X130.000 Y150.000 F6000 ; position over col=5 row=4

;    [place]
G0 Z67.900 F800 ; slow approach (6 mm above target)
G1 Z61.900 F150 ; push brick onto studs
G4 P200  ; dwell 200 ms — ensure engagement
G0 Z80.000 F6000 ; retract to safe height

; ── Brick   55/60  col=  6  row=  4  →  X=146.0  Z=43.4 ──
;    [pick-up]
G0 X0.000 Y0.000 F6000 ; move over dispenser
G0 Z5.000 F800 ; descend to grab height
G4 P500  ; dwell — let block seat in socket
G0 Z80.000 F6000 ; rise with brick

;    [travel]
G0 X146.000 Y150.000 F6000 ; position over col=6 row=4

;    [place]
G0 Z67.900 F800 ; slow approach (6 mm above target)
G1 Z61.900 F150 ; push brick onto studs
G4 P200  ; dwell 200 ms — ensure engagement
G0 Z80.000 F6000 ; retract to safe height

; ── Brick   56/60  col=  7  row=  4  →  X=162.0  Z=43.4 ──
;    [pick-up]
G0 X0.000 Y0.000 F6000 ; move over dispenser
G0 Z5.000 F800 ; descend to grab height
G4 P500  ; dwell — let block seat in socket
G0 Z80.000 F6000 ; rise with brick

;    [travel]
G0 X162.000 Y150.000 F6000 ; position over col=7 row=4

;    [place]
G0 Z67.900 F800 ; slow approach (6 mm above target)
G1 Z61.900 F150 ; push brick onto studs
G4 P200  ; dwell 200 ms — ensure engagement
G0 Z80.000 F6000 ; retract to safe height

; ── Brick   57/60  col=  8  row=  4  →  X=178.0  Z=43.4 ──
;    [pick-up]
G0 X0.000 Y0.000 F6000 ; move over dispenser
G0 Z5.000 F800 ; descend to grab height
G4 P500  ; dwell — let block seat in socket
G0 Z80.000 F6000 ; rise with brick

;    [travel]
G0 X178.000 Y150.000 F6000 ; position over col=8 row=4

;    [place]
G0 Z67.900 F800 ; slow approach (6 mm above target)
G1 Z61.900 F150 ; push brick onto studs
G4 P200  ; dwell 200 ms — ensure engagement
G0 Z80.000 F6000 ; retract to safe height

; ── Brick   58/60  col=  9  row=  4  →  X=194.0  Z=43.4 ──
;    [pick-up]
G0 X0.000 Y0.000 F6000 ; move over dispenser
G0 Z5.000 F800 ; descend to grab height
G4 P500  ; dwell — let block seat in socket
G0 Z80.000 F6000 ; rise with brick

;    [travel]
G0 X194.000 Y150.000 F6000 ; position over col=9 row=4

;    [place]
G0 Z67.900 F800 ; slow approach (6 mm above target)
G1 Z61.900 F150 ; push brick onto studs
G4 P200  ; dwell 200 ms — ensure engagement
G0 Z80.000 F6000 ; retract to safe height

; ── Brick   59/60  col= 10  row=  4  →  X=210.0  Z=43.4 ──
;    [pick-up]
G0 X0.000 Y0.000 F6000 ; move over dispenser
G0 Z5.000 F800 ; descend to grab height
G4 P500  ; dwell — let block seat in socket
G0 Z80.000 F6000 ; rise with brick

;    [travel]
G0 X210.000 Y150.000 F6000 ; position over col=10 row=4

;    [place]
G0 Z67.900 F800 ; slow approach (6 mm above target)
G1 Z61.900 F150 ; push brick onto studs
G4 P200  ; dwell 200 ms — ensure engagement
G0 Z80.000 F6000 ; retract to safe height

; ── Brick   60/60  col= 11  row=  4  →  X=226.0  Z=43.4 ──
;    [pick-up]
G0 X0.000 Y0.000 F6000 ; move over dispenser
G0 Z5.000 F800 ; descend to grab height
G4 P500  ; dwell — let block seat in socket
G0 Z80.000 F6000 ; rise with brick

;    [travel]
G0 X226.000 Y150.000 F6000 ; position over col=11 row=4

;    [place]
G0 Z67.900 F800 ; slow approach (6 mm above target)
G1 Z61.900 F150 ; push brick onto studs
G4 P200  ; dwell 200 ms — ensure engagement
G0 Z80.000 F6000 ; retract to safe height

; ── All bricks placed ──────────────────────────────────────

G0 Z80.000 F6000
G0 X0.000 Y0.000 F6000 ; return to home XY
M84  ; disable steppers