; generated by PrusaSlicer 2.9.4 on 2026-02-22 at 00:46:31 UTC
; prusaslicer:gcode_flavor = marlin2
; prusaslicer:printer_model = MK3S
; layer_count = 5
; estimated printing time (normal mode) = 0s
; filament used [mm] = 0
; nozzle_diameter = 0
; total_toolchanges = 0
; LEGO Wall G-code  —  generated by nbt_to_gcode.py
; Structure  : 12 cols wide × 5 rows tall
; Bricks     : 60 total  (18 red, 42 yellow)
; Brick face : 8 mm wide × 9.6 mm tall  (short / square end faces out)
; Wall depth : 16 mm  (2 studs — long axis of brick points inward)
; Wall X     : 50.0 – 146.0 mm
; Wall Z     : 5.0 – 53.0 mm
; Disp RED   : X=0.0  Y=0.0  Z=5.0
; Disp YELLOW: X=30.0  Y=0.0  Z=5.0

M73 P0 R0 Q0 S0        ; progress: 0% (normal + stealth modes)
M201 X1000 Y1000 Z200  ; max accelerations [mm/s^2] — no E (no extruder)
M203 X200 Y200 Z12     ; max feedrates [mm/s]
M204 P1250 T1250       ; print / travel acceleration [mm/s^2]
M205 X8.00 Y8.00 Z0.40 ; jerk limits [mm/s]
G21                    ; units: millimetres
G90                    ; absolute positioning
G28 W                  ; home all axes (W = skip mesh bed leveling)
; NOTE: M104/M109/M140/M190 omitted — no hotend/bed on this machine
M83                    ; relative extruder mode (E values are incremental)
G92 E0                 ; reset extruder position

G0 Z80.000 F6000 ; raise to safe travel height
;TYPE:Travel

;LAYER_CHANGE
;Z:5.000
;HEIGHT:9.600
; --- Layer 1/5 ---
M73 P0 R0 Q0 S0  ; progress 0%
; ── Brick    1/60  [YELLOW]  col=  0  row=  0  →  X=50.0  Z=5.0 ──
;    [pick-up  YELLOW]
;TYPE:Travel
G0 X30.000 Y0.000 F6000 ; move over YELLOW dispenser
G0 Z5.000 F800 ; descend to grab height
G4 P500  ; dwell — let block seat in socket
G0 Z80.000 F2000 ; rise with brick (carry speed)

;    [travel to brick]
;TYPE:Custom
G1 X50.000 Y150.000 E0.0500 F2000 ; position over col=0 row=0 (carry speed)
G92 E0   ; reset E after travel mark

;    [place]
;TYPE:Travel
G0 Z29.500 F800 ; slow approach (6 mm above target)
G1 Z23.500 F150 ; push brick onto studs
G4 P200  ; dwell 200 ms — ensure engagement
;TYPE:Travel
G0 Z80.000 F6000 ; retract to safe height

M73 P2 R0 Q2 S0  ; progress 2%
; ── Brick    2/60  [YELLOW]  col=  1  row=  0  →  X=58.0  Z=5.0 ──
;    [pick-up  YELLOW]
;TYPE:Travel
G0 X30.000 Y0.000 F6000 ; move over YELLOW dispenser
G0 Z5.000 F800 ; descend to grab height
G4 P500  ; dwell — let block seat in socket
G0 Z80.000 F2000 ; rise with brick (carry speed)

;    [travel to brick]
;TYPE:Custom
G1 X58.000 Y150.000 E0.0500 F2000 ; position over col=1 row=0 (carry speed)
G92 E0   ; reset E after travel mark

;    [place]
;TYPE:Travel
G0 Z29.500 F800 ; slow approach (6 mm above target)
G1 Z23.500 F150 ; push brick onto studs
G4 P200  ; dwell 200 ms — ensure engagement
;TYPE:Travel
G0 Z80.000 F6000 ; retract to safe height

M73 P3 R0 Q3 S0  ; progress 3%
; ── Brick    3/60  [RED   ]  col=  2  row=  0  →  X=66.0  Z=5.0 ──
;    [pick-up  RED]
;TYPE:Travel
G0 X0.000 Y0.000 F6000 ; move over RED dispenser
G0 Z5.000 F800 ; descend to grab height
G4 P500  ; dwell — let block seat in socket
G0 Z80.000 F2000 ; rise with brick (carry speed)

;    [travel to brick]
;TYPE:Custom
G1 X66.000 Y150.000 E0.0500 F2000 ; position over col=2 row=0 (carry speed)
G92 E0   ; reset E after travel mark

;    [place]
;TYPE:Travel
G0 Z29.500 F800 ; slow approach (6 mm above target)
G1 Z23.500 F150 ; push brick onto studs
G4 P200  ; dwell 200 ms — ensure engagement
;TYPE:Travel
G0 Z80.000 F6000 ; retract to safe height

M73 P5 R0 Q5 S0  ; progress 5%
; ── Brick    4/60  [YELLOW]  col=  3  row=  0  →  X=74.0  Z=5.0 ──
;    [pick-up  YELLOW]
;TYPE:Travel
G0 X30.000 Y0.000 F6000 ; move over YELLOW dispenser
G0 Z5.000 F800 ; descend to grab height
G4 P500  ; dwell — let block seat in socket
G0 Z80.000 F2000 ; rise with brick (carry speed)

;    [travel to brick]
;TYPE:Custom
G1 X74.000 Y150.000 E0.0500 F2000 ; position over col=3 row=0 (carry speed)
G92 E0   ; reset E after travel mark

;    [place]
;TYPE:Travel
G0 Z29.500 F800 ; slow approach (6 mm above target)
G1 Z23.500 F150 ; push brick onto studs
G4 P200  ; dwell 200 ms — ensure engagement
;TYPE:Travel
G0 Z80.000 F6000 ; retract to safe height

M73 P7 R0 Q7 S0  ; progress 7%
; ── Brick    5/60  [RED   ]  col=  4  row=  0  →  X=82.0  Z=5.0 ──
;    [pick-up  RED]
;TYPE:Travel
G0 X0.000 Y0.000 F6000 ; move over RED dispenser
G0 Z5.000 F800 ; descend to grab height
G4 P500  ; dwell — let block seat in socket
G0 Z80.000 F2000 ; rise with brick (carry speed)

;    [travel to brick]
;TYPE:Custom
G1 X82.000 Y150.000 E0.0500 F2000 ; position over col=4 row=0 (carry speed)
G92 E0   ; reset E after travel mark

;    [place]
;TYPE:Travel
G0 Z29.500 F800 ; slow approach (6 mm above target)
G1 Z23.500 F150 ; push brick onto studs
G4 P200  ; dwell 200 ms — ensure engagement
;TYPE:Travel
G0 Z80.000 F6000 ; retract to safe height

M73 P8 R0 Q8 S0  ; progress 8%
; ── Brick    6/60  [YELLOW]  col=  5  row=  0  →  X=90.0  Z=5.0 ──
;    [pick-up  YELLOW]
;TYPE:Travel
G0 X30.000 Y0.000 F6000 ; move over YELLOW dispenser
G0 Z5.000 F800 ; descend to grab height
G4 P500  ; dwell — let block seat in socket
G0 Z80.000 F2000 ; rise with brick (carry speed)

;    [travel to brick]
;TYPE:Custom
G1 X90.000 Y150.000 E0.0500 F2000 ; position over col=5 row=0 (carry speed)
G92 E0   ; reset E after travel mark

;    [place]
;TYPE:Travel
G0 Z29.500 F800 ; slow approach (6 mm above target)
G1 Z23.500 F150 ; push brick onto studs
G4 P200  ; dwell 200 ms — ensure engagement
;TYPE:Travel
G0 Z80.000 F6000 ; retract to safe height

M73 P10 R0 Q10 S0  ; progress 10%
; ── Brick    7/60  [RED   ]  col=  6  row=  0  →  X=98.0  Z=5.0 ──
;    [pick-up  RED]
;TYPE:Travel
G0 X0.000 Y0.000 F6000 ; move over RED dispenser
G0 Z5.000 F800 ; descend to grab height
G4 P500  ; dwell — let block seat in socket
G0 Z80.000 F2000 ; rise with brick (carry speed)

;    [travel to brick]
;TYPE:Custom
G1 X98.000 Y150.000 E0.0500 F2000 ; position over col=6 row=0 (carry speed)
G92 E0   ; reset E after travel mark

;    [place]
;TYPE:Travel
G0 Z29.500 F800 ; slow approach (6 mm above target)
G1 Z23.500 F150 ; push brick onto studs
G4 P200  ; dwell 200 ms — ensure engagement
;TYPE:Travel
G0 Z80.000 F6000 ; retract to safe height

M73 P12 R0 Q12 S0  ; progress 12%
; ── Brick    8/60  [YELLOW]  col=  7  row=  0  →  X=106.0  Z=5.0 ──
;    [pick-up  YELLOW]
;TYPE:Travel
G0 X30.000 Y0.000 F6000 ; move over YELLOW dispenser
G0 Z5.000 F800 ; descend to grab height
G4 P500  ; dwell — let block seat in socket
G0 Z80.000 F2000 ; rise with brick (carry speed)

;    [travel to brick]
;TYPE:Custom
G1 X106.000 Y150.000 E0.0500 F2000 ; position over col=7 row=0 (carry speed)
G92 E0   ; reset E after travel mark

;    [place]
;TYPE:Travel
G0 Z29.500 F800 ; slow approach (6 mm above target)
G1 Z23.500 F150 ; push brick onto studs
G4 P200  ; dwell 200 ms — ensure engagement
;TYPE:Travel
G0 Z80.000 F6000 ; retract to safe height

M73 P13 R0 Q13 S0  ; progress 13%
; ── Brick    9/60  [YELLOW]  col=  8  row=  0  →  X=114.0  Z=5.0 ──
;    [pick-up  YELLOW]
;TYPE:Travel
G0 X30.000 Y0.000 F6000 ; move over YELLOW dispenser
G0 Z5.000 F800 ; descend to grab height
G4 P500  ; dwell — let block seat in socket
G0 Z80.000 F2000 ; rise with brick (carry speed)

;    [travel to brick]
;TYPE:Custom
G1 X114.000 Y150.000 E0.0500 F2000 ; position over col=8 row=0 (carry speed)
G92 E0   ; reset E after travel mark

;    [place]
;TYPE:Travel
G0 Z29.500 F800 ; slow approach (6 mm above target)
G1 Z23.500 F150 ; push brick onto studs
G4 P200  ; dwell 200 ms — ensure engagement
;TYPE:Travel
G0 Z80.000 F6000 ; retract to safe height

M73 P15 R0 Q15 S0  ; progress 15%
; ── Brick   10/60  [YELLOW]  col=  9  row=  0  →  X=122.0  Z=5.0 ──
;    [pick-up  YELLOW]
;TYPE:Travel
G0 X30.000 Y0.000 F6000 ; move over YELLOW dispenser
G0 Z5.000 F800 ; descend to grab height
G4 P500  ; dwell — let block seat in socket
G0 Z80.000 F2000 ; rise with brick (carry speed)

;    [travel to brick]
;TYPE:Custom
G1 X122.000 Y150.000 E0.0500 F2000 ; position over col=9 row=0 (carry speed)
G92 E0   ; reset E after travel mark

;    [place]
;TYPE:Travel
G0 Z29.500 F800 ; slow approach (6 mm above target)
G1 Z23.500 F150 ; push brick onto studs
G4 P200  ; dwell 200 ms — ensure engagement
;TYPE:Travel
G0 Z80.000 F6000 ; retract to safe height

M73 P17 R0 Q17 S0  ; progress 17%
; ── Brick   11/60  [RED   ]  col= 10  row=  0  →  X=130.0  Z=5.0 ──
;    [pick-up  RED]
;TYPE:Travel
G0 X0.000 Y0.000 F6000 ; move over RED dispenser
G0 Z5.000 F800 ; descend to grab height
G4 P500  ; dwell — let block seat in socket
G0 Z80.000 F2000 ; rise with brick (carry speed)

;    [travel to brick]
;TYPE:Custom
G1 X130.000 Y150.000 E0.0500 F2000 ; position over col=10 row=0 (carry speed)
G92 E0   ; reset E after travel mark

;    [place]
;TYPE:Travel
G0 Z29.500 F800 ; slow approach (6 mm above target)
G1 Z23.500 F150 ; push brick onto studs
G4 P200  ; dwell 200 ms — ensure engagement
;TYPE:Travel
G0 Z80.000 F6000 ; retract to safe height

M73 P18 R0 Q18 S0  ; progress 18%
; ── Brick   12/60  [YELLOW]  col= 11  row=  0  →  X=138.0  Z=5.0 ──
;    [pick-up  YELLOW]
;TYPE:Travel
G0 X30.000 Y0.000 F6000 ; move over YELLOW dispenser
G0 Z5.000 F800 ; descend to grab height
G4 P500  ; dwell — let block seat in socket
G0 Z80.000 F2000 ; rise with brick (carry speed)

;    [travel to brick]
;TYPE:Custom
G1 X138.000 Y150.000 E0.0500 F2000 ; position over col=11 row=0 (carry speed)
G92 E0   ; reset E after travel mark

;    [place]
;TYPE:Travel
G0 Z29.500 F800 ; slow approach (6 mm above target)
G1 Z23.500 F150 ; push brick onto studs
G4 P200  ; dwell 200 ms — ensure engagement
;TYPE:Travel
G0 Z80.000 F6000 ; retract to safe height

;LAYER_CHANGE
;Z:14.600
;HEIGHT:9.600
; --- Layer 2/5 ---
M73 P20 R0 Q20 S0  ; progress 20%
; ── Brick   13/60  [YELLOW]  col=  0  row=  1  →  X=50.0  Z=14.6 ──
;    [pick-up  YELLOW]
;TYPE:Travel
G0 X30.000 Y0.000 F6000 ; move over YELLOW dispenser
G0 Z5.000 F800 ; descend to grab height
G4 P500  ; dwell — let block seat in socket
G0 Z80.000 F2000 ; rise with brick (carry speed)

;    [travel to brick]
;TYPE:Custom
G1 X50.000 Y150.000 E0.0500 F2000 ; position over col=0 row=1 (carry speed)
G92 E0   ; reset E after travel mark

;    [place]
;TYPE:Travel
G0 Z39.100 F800 ; slow approach (6 mm above target)
G1 Z33.100 F150 ; push brick onto studs
G4 P200  ; dwell 200 ms — ensure engagement
;TYPE:Travel
G0 Z80.000 F6000 ; retract to safe height

M73 P22 R0 Q22 S0  ; progress 22%
; ── Brick   14/60  [YELLOW]  col=  1  row=  1  →  X=58.0  Z=14.6 ──
;    [pick-up  YELLOW]
;TYPE:Travel
G0 X30.000 Y0.000 F6000 ; move over YELLOW dispenser
G0 Z5.000 F800 ; descend to grab height
G4 P500  ; dwell — let block seat in socket
G0 Z80.000 F2000 ; rise with brick (carry speed)

;    [travel to brick]
;TYPE:Custom
G1 X58.000 Y150.000 E0.0500 F2000 ; position over col=1 row=1 (carry speed)
G92 E0   ; reset E after travel mark

;    [place]
;TYPE:Travel
G0 Z39.100 F800 ; slow approach (6 mm above target)
G1 Z33.100 F150 ; push brick onto studs
G4 P200  ; dwell 200 ms — ensure engagement
;TYPE:Travel
G0 Z80.000 F6000 ; retract to safe height

M73 P23 R0 Q23 S0  ; progress 23%
; ── Brick   15/60  [RED   ]  col=  2  row=  1  →  X=66.0  Z=14.6 ──
;    [pick-up  RED]
;TYPE:Travel
G0 X0.000 Y0.000 F6000 ; move over RED dispenser
G0 Z5.000 F800 ; descend to grab height
G4 P500  ; dwell — let block seat in socket
G0 Z80.000 F2000 ; rise with brick (carry speed)

;    [travel to brick]
;TYPE:Custom
G1 X66.000 Y150.000 E0.0500 F2000 ; position over col=2 row=1 (carry speed)
G92 E0   ; reset E after travel mark

;    [place]
;TYPE:Travel
G0 Z39.100 F800 ; slow approach (6 mm above target)
G1 Z33.100 F150 ; push brick onto studs
G4 P200  ; dwell 200 ms — ensure engagement
;TYPE:Travel
G0 Z80.000 F6000 ; retract to safe height

M73 P25 R0 Q25 S0  ; progress 25%
; ── Brick   16/60  [YELLOW]  col=  3  row=  1  →  X=74.0  Z=14.6 ──
;    [pick-up  YELLOW]
;TYPE:Travel
G0 X30.000 Y0.000 F6000 ; move over YELLOW dispenser
G0 Z5.000 F800 ; descend to grab height
G4 P500  ; dwell — let block seat in socket
G0 Z80.000 F2000 ; rise with brick (carry speed)

;    [travel to brick]
;TYPE:Custom
G1 X74.000 Y150.000 E0.0500 F2000 ; position over col=3 row=1 (carry speed)
G92 E0   ; reset E after travel mark

;    [place]
;TYPE:Travel
G0 Z39.100 F800 ; slow approach (6 mm above target)
G1 Z33.100 F150 ; push brick onto studs
G4 P200  ; dwell 200 ms — ensure engagement
;TYPE:Travel
G0 Z80.000 F6000 ; retract to safe height

M73 P27 R0 Q27 S0  ; progress 27%
; ── Brick   17/60  [RED   ]  col=  4  row=  1  →  X=82.0  Z=14.6 ──
;    [pick-up  RED]
;TYPE:Travel
G0 X0.000 Y0.000 F6000 ; move over RED dispenser
G0 Z5.000 F800 ; descend to grab height
G4 P500  ; dwell — let block seat in socket
G0 Z80.000 F2000 ; rise with brick (carry speed)

;    [travel to brick]
;TYPE:Custom
G1 X82.000 Y150.000 E0.0500 F2000 ; position over col=4 row=1 (carry speed)
G92 E0   ; reset E after travel mark

;    [place]
;TYPE:Travel
G0 Z39.100 F800 ; slow approach (6 mm above target)
G1 Z33.100 F150 ; push brick onto studs
G4 P200  ; dwell 200 ms — ensure engagement
;TYPE:Travel
G0 Z80.000 F6000 ; retract to safe height

M73 P28 R0 Q28 S0  ; progress 28%
; ── Brick   18/60  [YELLOW]  col=  5  row=  1  →  X=90.0  Z=14.6 ──
;    [pick-up  YELLOW]
;TYPE:Travel
G0 X30.000 Y0.000 F6000 ; move over YELLOW dispenser
G0 Z5.000 F800 ; descend to grab height
G4 P500  ; dwell — let block seat in socket
G0 Z80.000 F2000 ; rise with brick (carry speed)

;    [travel to brick]
;TYPE:Custom
G1 X90.000 Y150.000 E0.0500 F2000 ; position over col=5 row=1 (carry speed)
G92 E0   ; reset E after travel mark

;    [place]
;TYPE:Travel
G0 Z39.100 F800 ; slow approach (6 mm above target)
G1 Z33.100 F150 ; push brick onto studs
G4 P200  ; dwell 200 ms — ensure engagement
;TYPE:Travel
G0 Z80.000 F6000 ; retract to safe height

M73 P30 R0 Q30 S0  ; progress 30%
; ── Brick   19/60  [RED   ]  col=  6  row=  1  →  X=98.0  Z=14.6 ──
;    [pick-up  RED]
;TYPE:Travel
G0 X0.000 Y0.000 F6000 ; move over RED dispenser
G0 Z5.000 F800 ; descend to grab height
G4 P500  ; dwell — let block seat in socket
G0 Z80.000 F2000 ; rise with brick (carry speed)

;    [travel to brick]
;TYPE:Custom
G1 X98.000 Y150.000 E0.0500 F2000 ; position over col=6 row=1 (carry speed)
G92 E0   ; reset E after travel mark

;    [place]
;TYPE:Travel
G0 Z39.100 F800 ; slow approach (6 mm above target)
G1 Z33.100 F150 ; push brick onto studs
G4 P200  ; dwell 200 ms — ensure engagement
;TYPE:Travel
G0 Z80.000 F6000 ; retract to safe height

M73 P32 R0 Q32 S0  ; progress 32%
; ── Brick   20/60  [YELLOW]  col=  7  row=  1  →  X=106.0  Z=14.6 ──
;    [pick-up  YELLOW]
;TYPE:Travel
G0 X30.000 Y0.000 F6000 ; move over YELLOW dispenser
G0 Z5.000 F800 ; descend to grab height
G4 P500  ; dwell — let block seat in socket
G0 Z80.000 F2000 ; rise with brick (carry speed)

;    [travel to brick]
;TYPE:Custom
G1 X106.000 Y150.000 E0.0500 F2000 ; position over col=7 row=1 (carry speed)
G92 E0   ; reset E after travel mark

;    [place]
;TYPE:Travel
G0 Z39.100 F800 ; slow approach (6 mm above target)
G1 Z33.100 F150 ; push brick onto studs
G4 P200  ; dwell 200 ms — ensure engagement
;TYPE:Travel
G0 Z80.000 F6000 ; retract to safe height

M73 P33 R0 Q33 S0  ; progress 33%
; ── Brick   21/60  [RED   ]  col=  8  row=  1  →  X=114.0  Z=14.6 ──
;    [pick-up  RED]
;TYPE:Travel
G0 X0.000 Y0.000 F6000 ; move over RED dispenser
G0 Z5.000 F800 ; descend to grab height
G4 P500  ; dwell — let block seat in socket
G0 Z80.000 F2000 ; rise with brick (carry speed)

;    [travel to brick]
;TYPE:Custom
G1 X114.000 Y150.000 E0.0500 F2000 ; position over col=8 row=1 (carry speed)
G92 E0   ; reset E after travel mark

;    [place]
;TYPE:Travel
G0 Z39.100 F800 ; slow approach (6 mm above target)
G1 Z33.100 F150 ; push brick onto studs
G4 P200  ; dwell 200 ms — ensure engagement
;TYPE:Travel
G0 Z80.000 F6000 ; retract to safe height

